icons/burn_fill.svg

<svg width="48" height="48" viewBox="0 0 48 48" fill="none" xmlns="http://www.w3.org/2000/svg">
<path fill-rule="evenodd" clip-rule="evenodd" d="M8.03735 17C8.03735 17.7445 7.96697 18.4478 7.84042 19.1231C7.37767 21.5921 6.16389 23.6852 4.89396 26.0382C3.42525 28.7595 4.02324 31.2141 5.34651 33.5059C5.83851 34.358 6.43077 35.1876 7.05434 36C7.05434 35.8141 7.05408 35.6356 7.05383 35.4638C7.05238 34.4781 7.05126 33.7157 7.10199 33.0734C7.24843 31.2196 7.82687 30.3666 10.0763 28.0327C11.1023 29.93 10.8456 31.8945 10.4681 33.8901C10.4306 34.0884 10.3918 34.287 10.3531 34.4859C10.255 34.9891 10.1566 35.494 10.0763 36C10.4869 35.7952 10.8931 35.6046 11.2916 35.4176C11.5295 35.3059 11.7647 35.1955 11.9964 35.0842C13.8305 34.2031 15.4437 33.2639 16.4682 31.1594C17.677 28.6763 17.1436 26.7141 16.3128 24.3403C16.0314 23.5362 15.7158 22.6848 15.4223 21.75C15.0656 23.1071 14.4009 24.3409 13.969 25.2045C13.1091 21.7648 10.6567 19.245 8.03735 17Z" fill="black"/>
<path d="M38.9998 17.2207L22.2686 17.2207C21.2822 17.2207 20.8915 15.9438 21.7092 15.3919L25.7452 12.6676C26.9244 11.8716 27.225 10.2652 26.4136 9.09663C25.6719 8.02864 24.2459 7.68901 23.1024 8.30802L10.2869 15.2457C10.1321 15.3296 9.97956 15.4165 9.82944 15.5065C11.2762 16.8084 12.4809 18.1401 13.8912 20.5C14.5007 19.5 14.9297 18.2857 15.3912 16.5C15.6311 17.2767 16.0393 18.2419 16.4994 19.3296C18.1886 23.323 20.5762 28.9675 17.8912 33C15.8973 35.7456 14.2133 36.5657 11.9924 37.6472C11.8925 37.6959 11.7914 37.7451 11.6892 37.7951C11.46 37.907 11.2282 38.0183 10.9942 38.1301C12.5177 38.8303 14.2131 39.2207 15.9998 39.2207L32.9998 39.2207C34.1043 39.2207 34.9998 38.3253 34.9998 37.2207C34.9998 36.1162 34.1043 35.2207 32.9998 35.2207H22.8886V33.2207H38.9998C40.1043 33.2207 40.9998 32.3253 40.9998 31.2207C40.9998 30.1162 40.1043 29.2207 38.9998 29.2207H24.9998V27.2207H41.9997C43.1043 27.2207 43.9997 26.3253 43.9997 25.2207C43.9997 24.1162 43.1043 23.2207 41.9997 23.2207L24.9998 23.2207V21.2207L38.9998 21.2207C40.1043 21.2207 40.9998 20.3253 40.9998 19.2207C40.9998 18.1162 40.1043 17.2207 38.9998 17.2207Z" fill="black"/>
</svg>

<svg
  xmlns="http://www.w3.org/2000/svg"
  width="24"
  height="24"
  viewBox="0 0 24 24"
  fill="none"
  stroke="currentColor"
  stroke-width="2"
  stroke-linecap="round"
  stroke-linejoin="round"
>
  <path
    fill-rule="evenodd"
    d="M8.037 17c0 .744-.07 1.448-.197 2.123-.462 2.47-1.676 4.562-2.946 6.915-1.469 2.721-.87 5.176.453 7.468.492.852 1.084 1.682 1.707 2.494v-.536c-.002-.986-.003-1.748.048-2.39.146-1.854.725-2.707 2.974-5.041 1.026 1.897.77 3.861.392 5.857q-.056.297-.115.596A44 44 0 0 0 10.076 36c.41-.205.817-.395 1.216-.582q.357-.167.704-.334c1.835-.88 3.448-1.82 4.472-3.925 1.209-2.483.676-4.445-.155-6.819-.282-.804-.597-1.655-.89-2.59-.357 1.357-1.022 2.59-1.454 3.454-.86-3.44-3.312-5.959-5.932-8.204"
    clip-rule="evenodd"
  />
  <path d="M39 17.22H22.269c-.987 0-1.377-1.276-.56-1.828l4.036-2.724a2.552 2.552 0 0 0-2.643-4.36l-12.815 6.938q-.232.125-.458.26c1.447 1.302 2.652 2.634 4.062 4.994.61-1 1.039-2.214 1.5-4 .24.777.648 1.742 1.108 2.83 1.69 3.993 4.077 9.638 1.392 13.67-1.994 2.746-3.678 3.566-5.899 4.647l-.303.148q-.343.167-.695.335c1.524.7 3.22 1.09 5.006 1.09h17a2 2 0 0 0 0-4H22.889v-2h16.11a2 2 0 0 0 0-4H25v-2h17a2 2 0 1 0 0-4H25v-2h14a2 2 0 0 0 0-4" />
</svg>
